modules/feathericon/icons/cutlery.svg

<?xml version="1.0" encoding="UTF-8"?>
<svg width="24px" height="24px" viewBox="0 0 24 24" version="1.1" xmlns="http://www.w3.org/2000/svg" xmlns:xlink="http://www.w3.org/1999/xlink">
    <!-- Generator: sketchtool 52.2 (67145) - http://www.bohemiancoding.com/sketch -->
    <title>cutlery</title>
    <desc>Created with sketchtool.</desc>
    <g id="food" stroke="none" stroke-width="1" fill="none" fill-rule="evenodd">
        <g id="cutlery" fill="#000000">
            <path d="M9,13 L9,21 C9,21.5522847 8.55228475,22 8,22 C7.44771525,22 7,21.5522847 7,21 L7,13 C5.8954305,13 5,12.1045695 5,11 L5,4 C5,2.8954305 5.8954305,2 7,2 L7,8 L9,8 L9,2 C10.1045695,2 11,2.8954305 11,4 L11,11 C11,12.1045695 10.1045695,13 9,13 Z M18,4 L18,21 C18,21.5522847 17.5522847,22 17,22 C16.4477153,22 16,21.5522847 16,21 L16,15 L15,15 C13.8954305,15 13,14.1045695 13,13 L13,4 C13,2.8954305 13.8954305,2 15,2 L16,2 C17.1045695,2 18,2.8954305 18,4 Z" id="Shape"></path>
        </g>
    </g>
</svg>

<svg width="24" height="24" viewBox="0 0 24 24" xmlns="http://www.w3.org/2000/svg"><path d="M9 13v8a1 1 0 0 1-2 0v-8a2 2 0 0 1-2-2V4a2 2 0 0 1 2-2v6h2V2a2 2 0 0 1 2 2v7a2 2 0 0 1-2 2zm9-9v17a1 1 0 0 1-2 0v-6h-1a2 2 0 0 1-2-2V4a2 2 0 0 1 2-2h1a2 2 0 0 1 2 2z" fill="#000" fill-rule="evenodd"/></svg>
